X:1
T:C minor Abraham Wood, 1783
T:Isaac Watts, 1706 Longing For His Return     86. 86. (C. M.)
T:Andover
T:Transcribed from Norman's Federal Harmony, 1790.
%%score [ 1 2 3 4 ]
L:1/8
Q:1/4=140
M:2/2
K:Eb
V:1 treble nm="Tr." snm="Tr."
V:2 treble nm="C." snm="C."
V:3 treble-8 nm="T." snm="T."
V:4 bass nm="B." snm="B."
V:1
"^2. With inward pain my heart-strings sound;  My soul dis–solves _______________________  a    –     way;""^1. My   passions fly to   seek   their King,  And send   their  groans _______________________ a    –   broad;" c4 | %1
 e2 d2 e2 d2 | c4 d4 | e6 d2 | c4 e4 | (d3 d e3 c | d6) d>c | =B8 |: z8 | z8 | z8 | %11
"^They beat the air with  hea–vy  wing, And mourn, They beat the  air   with  hea  –   vy  wing,   And  mourn   an        ab   –  sent   God.""^Dear Sovereign, whirl the seasons round, And bring,  Dear Sovereign, whirl the sea–sons round, And  bring    the      pro –  mised day." G4 G2 G2 | %12
 B6 B2 | G4 G4 | B6 B2 | c6 d2 | e4 c4 | B6 B2 | (c4 B2) G2 | (d4 B2) d2 | (G4 A2) G2 | B4 d4 | %22
 c8 :| %23
V:2
 E4 | G2 G2 G2 G2 | (G2 A2) G4 | G6 A2 | G4 G4 | (G3 A B2 AG | F6) F2 | G8 |: z8 | z8 | z8 | z8 | %12
 z8 | %13
"^They beat the air  with  heavy  wing, And mourn, And mourn, And mourn And mourn an         ab  –  sent   God.""^Dear Sovereign, whirl  the seasons round, And bring, And bring,  And bring, And  bring    the       pro – mised day." E4 E2 E2 | %14
 G6 G2 | G4 G4 | G6 G2 | G6 G2 | G6 E2 | (A4 G2) F2 | (E4 F2) G2 | G4 G4 | G8 :| %23
V:3
"^1. My  passions fly to    seek   their King,  And send  their groans _______________________  a    –    broad;                        They beat the air with""^2. With inward pain my heart-strings sound;  My soul dis–solves _______________________ a   –      way;                    Dear Sovereign, whirl the" G4 | %1
 c2 =B2 c2 d2 | (e2 c2) =B4 | c6 d2 | e3 d c4 | (B3 c G3 A | F6) A2 | G8 |: z8 | G4 G2 G2 | B6 B2 | %11
"^heavy wing, And mourn, And mourn, And mourn, They beat the air with  hea –   vy   wing,   And  mourn  an          ab  –  sent   God.""^seasons round, And bring, And bring,  And  bring, Dear Sovereign, whirl the sea–sons round, And bring   the        pro – mised  day." E4 E4 | %12
 G6 B2 | c6 e2 | d6 d2 | e6 d2 | c4 e4 | d6 d2 | (e4 d2) e2 | (f4 e2) f2 | (g4 f2) e2 | %21
 (d2 c2) B4 | c8 :| %23
V:4
 C,4 | C,2 G,,2 C,2 G,2 | (E,2 F,2) G,4 | C,6 B,,2 | C,4 C,4 | (G,3 F, E,3 F, | D,6) D,2 | %7
"^They beat the air with   hea–vy" G,,8 |:"^Dear Sovereign, whirl the seasons" C,4 C,2 C,2 | %9
 E,6 E,2 | B,,4 B,,4 | %11
"^wing,  And mourn an   ab  – sent God, And mourn, They beat  the  air with  hea  –  vy   wing,   And  mourn   an        ab  –  sent    God.""^round, And bring  the  promised  day.  And bring,  Dear Sovereign, whirl the sea –sons round, And  bring    the      pro – mised  day." C,4 C,4 | %12
 G,,6 G,,2 | C,6 C,2 | G,6 G,2 | E,6 G,2 | C,4 C,4 | G,6 G,2 | (C,4 G,,2) C,2 | (D,4 E,2) D,2 | %20
 (C,4 D,2) E,>F, | G,4 G,,4 | C,8 :| %23

